X:1
T:D minor               Barnabas McKyes, 1798
T:Isaac Watts, 1709 (Hymn 19, Book 2)         86. 86. (C. M.)
T:Surprise
T:Transcribed from Benham's Social Harmony, 1798.
%%score [ 1 2 3 4 ]
L:1/8
Q:1/4=90
M:4/4
K:F
V:1 treble nm="Tr." snm="Tr."
V:2 treble nm="C." snm="C."
V:3 treble-8 nm="T." snm="T."
V:4 bass nm="B." snm="B."
V:1
"^1. Our    life               con–tains  a thousand springs, And  dies ________________   if      one   be           gone;" A8 | %1
 A6 c2 | c2 c2 A2 G2 | A2 A2 (A>B c2 | d6) c2 | A4 (G3 F) | E8 || z8 | z8 | %9
"^1. Strange  that a harp   of    thou         –         sand   strings,                                Strange that a harp of\n2. Sal – va – tion   to   th'Al – migh     –           ty     name,                                  Sal–va–tion to th'Al–\n3. His  Spi – rit  moves  our   hea          –        ving   lungs,                                    His Spirit moves our" c2 cA dc de | %10
 (f3 gfe) dc | A8 | f2 fc A2 A2 | %13
"^1. thousand strings   Should  keep  in tune  so   long!\n2. –migh–ty name   That  reared  us  from  the dust.\n3. heaving lungs,    Or they would  breathe no more." B3 c de f2 | %14
 e2 c2 A2 A2 | A8 |] %16
V:2
"^2. But   'tis ______  our  God supports our frame, The God _________________ that    built   us          first:" D8 | %1
 (D3 C D2) G2 | A2 A2 A2 GF | E2 E2 (F2 DC | D6) G2 | F4 E4 | E8 || %7
"^1. Strange  that a harp of thousand strings  Should keep in tune  so         long!                                 Strange that a harp of thousand strings  Should \n2. Sal–va–tion to th'Al–migh–ty name     That  reared  us  from   the      dust.                                Sal – va – tion to th'Al–migh–ty name  That\n3. His  Spirit  moves  our  heaving  lungs,   Or  they would breathe no    more.                              His  Spi – rit  moves  our heaving lungs,  Or" D2 DE F2 A2 | %8
 A2 A2 A2 E2 | F2 C2 F2 [EA]2 | [DA]8 | A2 AG F2 AB | c2 c2 c2 cA | %13
"^1. keep ________  in          tune          so             long!\n2. reared _______   us         from         the          dust.\n3. they ________ would   breathe     no           more." (G4 F2) FD | %14
 E4 E4 | D8 |] %16
V:3
"^3. While  we ___ have breath, or use our tongues,  Our Ma        –       –       –       –        ker   we'll   a      –     dore;" A8 | %1
 (d3 e f2) ed | c2 A2 f2 ge | c2 A2 (F3 G | A>BAG F2) E2 | F4 G4 | A8 || z8 | %8
"^1. Strange that a harp of thou           –          sand   strings,                                Strange that a harp of   thousand strings  Should \n2. Sal–va–tion to th'Al–migh           –           ty      name,                                  Sal – va – tion to th'Al–migh–ty name  That \n3. His  Spirit  moves  our  hea           –          ving    lungs,                                 His  Spi – rit  moves  our heaving lungs,  Or" c2 cA d2 e2 | %9
 (f3 gfe) dc | A8 | f2 fe d2 A2 | c2 c2 c2 A2 | %13
"^1. keep ________  in          tune          so             long!\n2. reared _______   us         from         the          dust.\n3. they ________ would   breathe     no           more." (d3 c f2) d2 | %14
 A4 c4 | d8 |] %16
V:4
 D,8 | D,6 C,2 | F,2 F,2 F,2 C,2 | A,,2 A,,2 (F,3 E, | D,6) C,2 | D,4 E,4 | A,,8 || %7
"^1. Strange  that a harp of thousand strings  Should keep in tune   so         long! _______________________________________      Should\n2. Sal–va–tion to th'Al–migh–ty name  That  reared   us   from   the       dust. _______________________________________      That\n3. His Spirit moves our heaving lungs,    Or   they  would  breathe  no    more. ______________________________________        Or" D,2 D,C, D,2 A,2 | %8
 F,2 F,2 D,2 C,2 | F,2 F,2 F,2 A,2 | (D,8- | D,8 | F,6) F,2 | %13
"^1. keep ________  in          tune          so             long!\n2. reared _______   us         from         the          dust.\n3. they ________ would   breathe     no           more." (G,3 A, B,2) B,2 | %14
 A,4 A,,4 | D,8 |] %16

